src/assets/outline/ToggleOffCircle.svg

<?xml version="1.0" encoding="UTF-8"?>
<svg width="24" height="24" viewBox="0 0 24 24" xmlns="http://www.w3.org/2000/svg">
 <path d="m14 20.75h-4c-4.83 0-8.75-3.93-8.75-8.75s3.92-8.75 8.75-8.75h4c4.83 0 8.75 3.93 8.75 8.75s-3.92 8.75-8.75 8.75zm-4-16c-4 0-7.25 3.25-7.25 7.25s3.25 7.25 7.25 7.25h4c4 0 7.25-3.25 7.25-7.25s-3.25-7.25-7.25-7.25h-4z"/>
 <path d="m10 16.75c-2.62 0-4.75-2.13-4.75-4.75s2.13-4.75 4.75-4.75 4.75 2.13 4.75 4.75-2.13 4.75-4.75 4.75zm0-8c-1.79 0-3.25 1.46-3.25 3.25s1.46 3.25 3.25 3.25 3.25-1.46 3.25-3.25-1.46-3.25-3.25-3.25z"/>
</svg>

<svg width="24" height="24" viewBox="0 0 24 24"  xmlns="http://www.w3.org/2000/svg">
<path d="M14 20.75H10C5.17 20.75 1.25 16.82 1.25 12C1.25 7.18 5.17 3.25 10 3.25H14C18.83 3.25 22.75 7.18 22.75 12C22.75 16.82 18.83 20.75 14 20.75ZM10 4.75C6 4.75 2.75 8 2.75 12C2.75 16 6 19.25 10 19.25H14C18 19.25 21.25 16 21.25 12C21.25 8 18 4.75 14 4.75H10Z" />
<path d="M10 16.75C7.38 16.75 5.25 14.62 5.25 12C5.25 9.38 7.38 7.25 10 7.25C12.62 7.25 14.75 9.38 14.75 12C14.75 14.62 12.62 16.75 10 16.75ZM10 8.75C8.21 8.75 6.75 10.21 6.75 12C6.75 13.79 8.21 15.25 10 15.25C11.79 15.25 13.25 13.79 13.25 12C13.25 10.21 11.79 8.75 10 8.75Z" />
</svg>
